X:21
M:4/4
L:1/4
K:C
E G A G | c A G E | C D E F | D4 | E G c A | d3/2 c/ B G | A E G ^F | G4 | G G G A | F F F G | !sintro!E G A c | d3 B | c4 !eintro!|]
